svgs/solid/trash-undo.svg

<svg xmlns="http://www.w3.org/2000/svg" viewBox="0 0 448 512"><!-- Font Awesome Pro 6.0.0-alpha2 by @fontawesome - https://fontawesome.com License - https://fontawesome.com/license (Commercial License) --><path d="M53.25 467C54.75 492.25 75.75 512 101.125 512H346.875C372.25 512 393.25 492.25 394.75 467L416 128H32L53.25 467ZM103.031 271.031L175.031 199.031C184.406 189.656 199.594 189.656 208.969 199.031S218.344 223.594 208.969 232.969L177.938 264H240C288.531 264 328 303.469 328 352V392C328 405.25 317.25 416 304 416S280 405.25 280 392V352C280 329.938 262.062 312 240 312H177.938L208.969 343.031C218.344 352.406 218.344 367.594 208.969 376.969C204.281 381.656 198.141 384 192 384S179.719 381.656 175.031 376.969L103.031 304.969C93.656 295.594 93.656 280.406 103.031 271.031ZM432 32H312L302.625 13.25C298.5 5.125 290.25 0 281.125 0H166.75C157.75 0 149.375 5.125 145.375 13.25L136 32H16C7.125 32 0 39.125 0 48V80C0 88.875 7.125 96 16 96H432C440.875 96 448 88.875 448 80V48C448 39.125 440.875 32 432 32Z"/></svg>

<svg xmlns="http://www.w3.org/2000/svg" viewBox="0 0 448 512"><!--! Font Awesome Pro 6.0.0-alpha3 by @fontawesome - https://fontawesome.com License - https://fontawesome.com/license (Commercial License) --><path d="M53.25 467C54.75 492.3 75.75 512 101.1 512h245.8c25.38 0 46.38-19.75 47.88-45L416 128H32L53.25 467zM103 271l72-72c9.375-9.375 24.56-9.375 33.94 0s9.375 24.56 0 33.94L177.9 264H240c48.53 0 88 39.47 88 88v40c0 13.25-10.75 24-24 24s-24-10.75-24-24V352c0-22.06-17.94-40-40-40H177.9l31.03 31.03c9.375 9.375 9.375 24.56 0 33.94C204.3 381.7 198.1 384 192 384s-12.28-2.344-16.97-7.031l-72-72C93.66 295.6 93.66 280.4 103 271zM432 32h-120l-9.375-18.75C298.5 5.125 290.3 0 281.1 0H166.8c-9 0-17.38 5.125-21.38 13.25L136 32H16C7.125 32 0 39.13 0 48v32C0 88.88 7.125 96 16 96h416C440.9 96 448 88.88 448 80v-32C448 39.13 440.9 32 432 32z"/></svg>
